X: 23
T:Charlie Harris' Polka
T:Kevin Burke Polka #1
R:Polka
D:Kevin Burke, "If the Cap Fits"
Z:Added by Alf Warnock
M:4/4
L:1/8
K:D
d>B|AFDF EFDF|AFAB e2d>B|AFDF EFDF|[1 AFAB BddB:|[2 AFAB BddA||
d2fd efdB|AFAB e2dB|d2fd efdB|AFAB BddA|
d2fd efdB|AFAB e2dB|dffe/2f/2 affe/2f/2|afef d2z2|]

